X: 1409
T: Ehren On The Rhine
B: australian traditional tunes wiki
M:3/4
L:1/8
R: Waltz
Q: 1/4=100
K:D
V:1 
AG||"D"F4A2|"Bm"B4F2|"G"G3BG2|"Em"E4EF|"A7"G4A2|"A7"c4 (3BcB|"D"A3AA2|"D"A4d2|
"D"d4d2|"A7"c4B2|"G"B4A2|"D"A4d2|"A7"c4c>B|"A7"c4B2|"D"A3AA2|"D"A4G2||
||"D"F4A2|"Bm"B4F2|"G"G3BG2|"Em"E4EF|"A7"G4A2|"A7"c4 (3BcB|"D"A3AA2|"D"A4dA|
"D"d4d2|"A7"c4B2|"G"B4A2|"D"d4F2|"A7"A4F2|"A7"G4 (3EGE |"D"D2F2A2|"D"d6||
% abcbook-tune_id 6342d53ae3214f68c8708063


% abcbook-boost 0
% abcbook-tablature 
% abcbook-transpose 
% abcbook-lastupdated 1665324363679
% abcbook-soundfonts 
% abcbook-repeats 1
% NFF Book 2013

